X:0483
T:The Shepherd Adonis.
M:3/4
L:1/8
Q:3/4=42 "Slow"
I: :: ||
Z:Jack Campin * www.campin.me.uk * 2009
K:B Minor
A2|B3d B2|B2A2 B2|d3B  A2    |A4 B2|d3e f2|f2e2 d2|e2d2 e2|f4::
A2|B3c B2|f3 e d2|d3e (d/e/f)|A4 A2|B3 dBA|B2d2 e2|f3 e d2|B4:|

